X: 27297
T: Miss Wedderburn's
R: reel
M: 4/4
K: Gmajor
|:DEDB, D2EG|AGAB AGEG|D2DB, D2EG|AGAB G2 G2:|
(3Bcd dB eBdB|GABG AGE2|(3Bcd dB eBdB|GABG A2 A2|
(3Bcd dB eBdB|GABG AGEG|D2DB, D2EG|AGAB G2 G2||

